resc/svg/person.svg

<svg width="257" height="257" viewBox="0 0 257 257" fill="none" xmlns="http://www.w3.org/2000/svg">
<g style="mix-blend-mode:overlay">
<path d="M222.978 193.778C186.151 185.276 151.861 177.823 168.47 146.469C219.005 51.0359 181.867 0 128.505 0C74.094 0 37.8662 52.9955 88.5402 146.469C105.642 178.005 70.0675 185.458 34.0325 193.778C2.13104 201.145 0 216.726 0 243.711L0.0535439 257H112.314L119.853 224.875H137.147L144.686 257H256.946L257 243.711C257.011 216.726 254.88 201.145 222.978 193.778V193.778ZM134.834 214.167H122.369L112.624 192.75H144.686L134.834 214.167Z" fill="#A3A3A3"/>
</g>
</svg>

<svg width="257" height="257" fill="none" xmlns="http://www.w3.org/2000/svg"><path d="M222.978 193.778c-36.827-8.502-71.117-15.955-54.508-47.309C219.005 51.036 181.867 0 128.505 0 74.094 0 37.866 52.995 88.54 146.469c17.102 31.536-18.473 38.989-54.508 47.309C2.131 201.145 0 216.726 0 243.711L.054 257h112.26l7.539-32.125h17.294L144.686 257h112.26l.054-13.289c.011-26.985-2.12-42.566-34.022-49.933zm-88.144 20.389h-12.465l-9.745-21.417h32.062l-9.852 21.417z" fill="#A3A3A3"/></svg>
